images/bite-mark.svg

<svg xmlns="http://www.w3.org/2000/svg" viewBox="0 0 440 374" xmlns:v="https://vecta.io/nano"><path d="M344.7 10.1c-58.7 9.6-60.1 60.1-60.1 60.1s-52.2-27.2-86 8.2c-30.7 32.1-17.1 69.6-17.1 69.6-76.5-35.5-116.8 69-69 97.6-25.9-4.1-45.4 3.3-62.1 31.4-15 25.3-15 53.2-6.1 82.5l340.7-.7V19.7c-8.9-11.6-40.3-9.6-40.3-9.6zm-268 300.4c1.7 0 7.2 3.8 7.2 5.5s-4.8 3.4-7.2.7c-1.1-1.3-3.1-1.4-3.1-3.1a3.12 3.12 0 0 1 3.1-3.1zm11.6 32c.2 1-1.8 6.5-6 1s-5.2-2-5.2-2c-.1-1.2-.3-2.2-.6-3.1-2 .5-3.8.9-4.8.9-3 0-5.5-2.4-5.5-5.5s3.1-8.9 6.1-8.9c1.7 0 5.8 1.6 9.1 3.6 0-4.7 12.6-2.6 9.2.2-3.5 2.9 2.2 8.6 2.2 8.6-2.7-.2-4.7 4.2-4.5 5.2zm7.2-12.2c-1.1 0-2-1.7-2-3.8s.9-3.8 2-3.8 2 1.7 2 3.8-.9 3.8-2 3.8zM124.2 178c1.5 0 5.5 1.9 5.5 3.4s-3.3 6.1-4.8 6.1-3.4-5.3-3.4-6.8a2.69 2.69 0 0 1 2.7-2.7zm-15.7 16.8c0-2.5 2-4.4 4.4-4.4 2.5 0 4.4 2 4.4 4.4s-2 4.4-4.4 4.4-4.4-2-4.4-4.4zm22.2 25.6c-4.2-1.8-6.6 5.8-6.6 5.8-1.1-2.4-5.9-2.2-6.7-1.6s-6.6 1.3-3.6-4.9c3-6.3-.6-5.6-.6-5.6 7.7-4.5 4.8-13 4.8-13s5.2 5.9 5.3 8.9c.1 2.9-1.2 5.4 3.1 2.3 4.2-3 8.5 10 4.3 8.1zm7.3-17.6c-1 2.3-3.1 3.5-4.9 2.7-1.7-.7-8.2-5.3-7.2-7.5 1-2.3 8.9-1.4 10.7-.7s2.4 3.2 1.4 5.5zm3.3 18.2c-1.1 0-2-1.7-2-3.8s.9-3.8 2-3.8 2 1.7 2 3.8c0 2.2-.9 3.8-2 3.8zm10.9 6.9c-1.1 0-2-1.7-2-3.8s.9-3.8 2-3.8 2 1.7 2 3.8-.9 3.8-2 3.8zM215 99.5c3.6 0 8.9 11.4 8.9 15s-8.4 3.4-11.9 3.4c-3.6 0-10.6-6.7-10.6-10.2-.1-3.6 10-8.2 13.6-8.2zm-26 57.4c-1.5 0-3.4-5.3-3.4-6.8a2.69 2.69 0 0 1 2.7-2.7c1.5 0 5.5 1.9 5.5 3.4s-3.2 6.1-4.8 6.1zm21.2 6.1c-1.9 0-1.5-3.4-3.4-3.4-4.1 0 .8-8.2 2.7-8.2s4.1 6.3 4.1 8.2a3.37 3.37 0 0 1-3.4 3.4zm-1-19.1a6.49 6.49 0 0 1-6.5-6.5v-.3c-3.4 0-6.1-2.8-6.1-6.1 0-3.4 2.8-6.1 6.1-6.1 3.4 0 6.1 2.8 6.1 6.1h.3a6.49 6.49 0 0 1 6.5 6.5c0 3.6-2.8 6.4-6.4 6.4zm11.7-9.3c-5.9-2.8-9.2-8.1-7.4-11.8s5.4-.4 11.3 2.4 11.7 4.2 9.9 7.9c-1.7 3.6-7.9 4.3-13.8 1.5zm12.2 15.4c-1.1-1.3-3.1-1.4-3.1-3.1a3.12 3.12 0 0 1 3.1-3.1c1.7 0 7.2 3.8 7.2 5.5 0 1.8-4.8 3.5-7.2.7zm47.2-67.7c-1.2.9-6.9 1.1-7.8-.1s2.2-5.9 3.4-6.8 2.9-.7 3.8.6c.9 1.1 1.8 5.4.6 6.3zm9.8-2.9c-1.7 1.2-3.6 1.5-4.2.6-.7-.9.1-2.6 1.8-3.9 1.7-1.2 3.6-1.5 4.2-.6s-.2 2.6-1.8 3.9zm6.8 9.2c-1.1 0-2-1.7-2-3.8s.9-3.8 2-3.8 2 1.7 2 3.8c.1 2.1-.8 3.8-2 3.8zM316 35.3a2.69 2.69 0 0 1 2.7-2.7c1.5 0 5.5 1.9 5.5 3.4s-3.3 6.1-4.8 6.1-3.4-5.3-3.4-6.8zm7.5 23.3c-1.5 0-3.4-5.3-3.4-6.8a2.69 2.69 0 0 1 2.7-2.7c1.5 0 5.5 1.9 5.5 3.4 0 1.4-3.2 6.1-4.8 6.1zm14.7-6.6c-5.2-3.9-11.1-5.9-7.5-10.7s10.8-5.5 16-1.6 6.6 11 3 15.8c-3.6 4.9-6.2.5-11.5-3.5zm18.1 17.5c-2.5 0-4.8 2-4.8.3s2-3.1 4.4-3.1c2.5 0 4.4 1.4 4.4 3.1s-1.5-.3-4-.3z" fill="#fff"/></svg>

<?xml version="1.0" encoding="utf-8"?>
<!-- Generator: Adobe Illustrator 27.3.1, SVG Export Plug-In . SVG Version: 6.00 Build 0)  -->
<svg version="1.1" id="Layer_1" xmlns:v="https://vecta.io/nano"
	 xmlns="http://www.w3.org/2000/svg" xmlns:xlink="http://www.w3.org/1999/xlink" x="0px" y="0px" viewBox="0 0 440 374"
	 style="enable-background:new 0 0 440 374;" xml:space="preserve">
<style type="text/css">
	.st0{fill:#FFFFFF;}
</style>
<path class="st0" d="M344.7,10.1c-58.7,9.6-60.1,60.1-60.1,60.1s-52.2-27.2-86,8.2c-30.7,32.1-17.1,69.6-17.1,69.6
	c-76.5-35.5-116.8,69-69,97.6c-25.9-4.1-45.4,3.3-62.1,31.4c-15,25.3-15,53.2-6.1,82.5l340.7-0.7V19.7
	C376.1,8.1,344.7,10.1,344.7,10.1z M76.7,310.5c1.7,0,7.2,3.8,7.2,5.5s-4.8,3.4-7.2,0.7c-1.1-1.3-3.1-1.4-3.1-3.1
	C73.6,311.9,75,310.5,76.7,310.5z M88.3,342.5c0.2,1-1.8,6.5-6,1s-5.2-2-5.2-2c-0.1-1.2-0.3-2.2-0.6-3.1c-2,0.5-3.8,0.9-4.8,0.9
	c-3,0-5.5-2.4-5.5-5.5s3.1-8.9,6.1-8.9c1.7,0,5.8,1.6,9.1,3.6c0-4.7,12.6-2.6,9.2,0.2c-3.5,2.9,2.2,8.6,2.2,8.6
	C90.1,337.1,88.1,341.5,88.3,342.5L88.3,342.5z M95.5,330.3c-1.1,0-2-1.7-2-3.8s0.9-3.8,2-3.8s2,1.7,2,3.8S96.6,330.3,95.5,330.3z
	 M124.2,178c1.5,0,5.5,1.9,5.5,3.4s-3.3,6.1-4.8,6.1s-3.4-5.3-3.4-6.8C121.5,179.2,122.7,178,124.2,178
	C124.2,178,124.2,178,124.2,178z M108.5,194.8c0-2.5,2-4.4,4.4-4.4c2.5,0,4.4,2,4.4,4.4s-2,4.4-4.4,4.4S108.5,197.2,108.5,194.8z
	 M130.7,220.4c-4.2-1.8-6.6,5.8-6.6,5.8c-1.1-2.4-5.9-2.2-6.7-1.6s-6.6,1.3-3.6-4.9c3-6.3-0.6-5.6-0.6-5.6c7.7-4.5,4.8-13,4.8-13
	s5.2,5.9,5.3,8.9c0.1,2.9-1.2,5.4,3.1,2.3C130.6,209.3,134.9,222.3,130.7,220.4L130.7,220.4z M138,202.8c-1,2.3-3.1,3.5-4.9,2.7
	c-1.7-0.7-8.2-5.3-7.2-7.5c1-2.3,8.9-1.4,10.7-0.7S139,200.5,138,202.8z M141.3,221c-1.1,0-2-1.7-2-3.8s0.9-3.8,2-3.8s2,1.7,2,3.8
	C143.3,219.4,142.4,221,141.3,221z M152.2,227.9c-1.1,0-2-1.7-2-3.8s0.9-3.8,2-3.8s2,1.7,2,3.8S153.3,227.9,152.2,227.9z M215,99.5
	c3.6,0,8.9,11.4,8.9,15s-8.4,3.4-11.9,3.4c-3.6,0-10.6-6.7-10.6-10.2C201.3,104.1,211.4,99.5,215,99.5z M189,156.9
	c-1.5,0-3.4-5.3-3.4-6.8c0-1.5,1.2-2.7,2.7-2.7c0,0,0,0,0,0c1.5,0,5.5,1.9,5.5,3.4S190.6,156.9,189,156.9z M210.2,163
	c-1.9,0-1.5-3.4-3.4-3.4c-4.1,0,0.8-8.2,2.7-8.2s4.1,6.3,4.1,8.2C213.6,161.5,212.1,163,210.2,163C210.2,163,210.2,163,210.2,163
	L210.2,163z M209.2,143.9c-3.6,0-6.5-2.9-6.5-6.5c0,0,0,0,0,0v-0.3c-3.4,0-6.1-2.8-6.1-6.1c0-3.4,2.8-6.1,6.1-6.1
	c3.4,0,6.1,2.8,6.1,6.1h0.3c3.6,0,6.5,2.9,6.5,6.5c0,0,0,0,0,0C215.6,141.1,212.8,143.9,209.2,143.9L209.2,143.9z M220.9,134.6
	c-5.9-2.8-9.2-8.1-7.4-11.8s5.4-0.4,11.3,2.4s11.7,4.2,9.9,7.9C233,136.7,226.8,137.4,220.9,134.6z M233.1,150
	c-1.1-1.3-3.1-1.4-3.1-3.1c0-1.7,1.4-3.1,3.1-3.1c1.7,0,7.2,3.8,7.2,5.5C240.3,151.1,235.5,152.8,233.1,150L233.1,150z M280.3,82.3
	c-1.2,0.9-6.9,1.1-7.8-0.1s2.2-5.9,3.4-6.8s2.9-0.7,3.8,0.6C280.6,77.1,281.5,81.4,280.3,82.3z M290.1,79.4
	c-1.7,1.2-3.6,1.5-4.2,0.6c-0.7-0.9,0.1-2.6,1.8-3.9c1.7-1.2,3.6-1.5,4.2-0.6S291.7,78.1,290.1,79.4z M296.9,88.6
	c-1.1,0-2-1.7-2-3.8s0.9-3.8,2-3.8s2,1.7,2,3.8C299,86.9,298.1,88.6,296.9,88.6z M316,35.3c0-1.5,1.2-2.7,2.7-2.7c0,0,0,0,0,0
	c1.5,0,5.5,1.9,5.5,3.4s-3.3,6.1-4.8,6.1S316,36.8,316,35.3L316,35.3z M323.5,58.6c-1.5,0-3.4-5.3-3.4-6.8c0-1.5,1.2-2.7,2.7-2.7
	c0,0,0,0,0,0c1.5,0,5.5,1.9,5.5,3.4C328.3,53.9,325.1,58.6,323.5,58.6L323.5,58.6z M338.2,52c-5.2-3.9-11.1-5.9-7.5-10.7
	s10.8-5.5,16-1.6s6.6,11,3,15.8C346.1,60.4,343.5,56,338.2,52z M356.3,69.5c-2.5,0-4.8,2-4.8,0.3s2-3.1,4.4-3.1
	c2.5,0,4.4,1.4,4.4,3.1S358.8,69.5,356.3,69.5z"/>
</svg>
